X: 1526
T: Nâr-ı Aşkınla Senin...
C: Rifat Bey (Sermüezzin, Miralay)
O: Turkey
F: http://compmusic.upf.edu/node/140
N: nihavent--sarki--agiraksak--nar-i_askinla--rifat_bey
N: makam= nihavent
N: form= sarki
N: usul= agiraksak = 9/4
M: 9/4
L: 1/16
K: C _B _e  
Q: 1/4=66
%%MIDI tuningsystem comma53
^f2g4b2 a3b g3a f3g e3f d2e2 d2c2 B2A2  | \
w:  ARANAĞME  | 
G3A B2c2 d2e2 d2c2 B3A AGG^F G4 d2e^f g4  | 
w:   | 
^f2g4b2 a3b g3a f3g e3f d2e2 d2c2 B2A2  | \
w:  ARANAĞME  | 
G3A B2c2 d2e2 d2c2 B3A AGG^F G8 z4  | 
w:   | 
z8 z2G4d2 c3B A2c2 B2A2 G2B2 A2G2  | \
w:  Nâr_ ı  aş *  *  *  kın  | 
A3G ^F2G2 A2B2 G2A2 B2c2 B2c2 d2{e}d^c d8  | 
w:  la  *  *  *  se *  *  *  nin  *  *  *  ey   | 
z2de f2g2 f3e d2f2 e3d c2e2 d3c B4 c2d2  | \
w:  nev *  *  *  *  *  *  *  *  *  *  *  *  *  *  ci  | 
c4 d4 d2ef edc2 d3c Bcde c2d4c2 f2ed  | 
w:  van  *  *  *  *  *  *  *  câ *  *  *  *  *  nım   *  SAZ  | 
d8 z2d4g2 g3^f f3e e3d edef d4  | \
w:  *  Dön dü  a *  *  *  teş  | 
d2ef edc2 c2d2 c2B2 c3e d2c2 cBBA B8  | 
w:  zâ *  *  *  *  *  re  *  *  *  cism_ *  *  *  i   | 
z2AB c2d2 e3d c2e2 d2c2 B2A2 dcBA GABc d4  | 
w:  nâ *  *  *  *  *  *  *  *  *  *  *  *  *  *  *  *  *  *  *  tü  | 
c3B A2c2 B3A G2AB dcBA AGG^F G6c2 B2c2  | 
w:  van   *  *  *  *  *  *  *  *  *  *  *  *  *  *  *  *  *  SAZ  | 
d8 z2d4g2 g3^f f3e e3d edef d4  | \
w:  *  Dön dü  a *  *  *  teş  | 
d2ef edc2 c2d2 c2B2 c3e d2c2 cBBA B8  | 
w:  zâ *  *  *  *  *  re  *  *  *  cism_ *  *  *  i   | 
z2AB c2d2 e3d c2e2 d2c2 B2A2 dcBA GABc d4  | 
w:  nâ *  *  *  *  *  *  *  *  *  *  *  *  *  *  *  *  *  *  *  tü  | 
c3B A2c2 B3A G2AB dcBA AGG^F G6g2 ^f2g2  | 
w:  van   *  *  *  *  *  *  *  *  *  *  *  *  *  *  *  *  *  SAZ  | 
a8 z2ag ^f2g2 a8 g3a b3a a3g  | g2ab ag^f2 f2g4b2 a2g2 f2e2 f3e d4 ^c4  | 
w:  *  Has *  *  ret_ i  hâl_  |  *  *  *  *  *  *  *  in le  hâl  *  *  *  ol  | 
d2^cd e2de ^f2ef g2fg a2g2 f2e2 d3=c B4 c2d2  | 
w:  du  *  *  *  *  *  *  *  *  *  *  *  *  *  *  *  *  *  *  ya  | 
c4 d4 d2ef edc2 d3c Bcde c2d4c2 f2ed  | \
w:  man  *  *  *  *  *  *  *  câ *  *  *  *  *  nım   *  SAZ  | 
d8 z2d4g2 g3^f f3e e3d edef d4  | 
w:  *  Dön dü  a *  *  *  teş  | 
d2ef edc2 c2d2 c2B2 c3e d2c2 cBBA B8  | \
w:  zâ *  *  *  *  *  re  *  *  *  cism_ *  *  *  i   | 
z2AB c2d2 e3d c2e2 d2c2 B2A2 dcBA GABc d4  | 
w:  nâ *  *  *  *  *  *  *  *  *  *  *  *  *  *  *  *  *  *  *  tü  | 
c3B A2c2 B3A G2AB dcBA AGG^F G6c2 B2c2  | 
w:  van   *  *  *  *  *  *  *  *  *  *  *  *  *  *  *  *  *  SAZ  | 
d8 z2d4g2 g3^f f3e e3d edef d4  | \
w:  *  Dön dü  a *  *  *  teş  | 
d2ef edc2 c2d2 c2B2 c3e d2c2 cBBA B8  | 
w:  zâ *  *  *  *  *  re  *  *  *  cism_ *  *  *  i   | 
z2AB c2d2 e3d c2e2 d2c2 B2A2 dcBA GABc d4  | 
w:  nâ *  *  *  *  *  *  *  *  *  *  *  *  *  *  *  *  *  *  *  tü  | 
c3B A2c2 B3A G2AB dcBA AGG^F G6|
w:  van    | 


